; generated by PrusaSlicer 2.9.4 on 2026-05-15 at 16:30:10 UTC


;
;
; 

; external perimeters extrusion width = 0.45mm
; perimeters extrusion width = 0.45mm
; infill extrusion width = 0.45mm
; solid infill extrusion width = 0.45mm
; top infill extrusion width = 0.40mm
; support material extrusion width = 0.35mm
; first layer extrusion width = 0.42mm

M73 P0 R69

; printing object external_temperature_sensor_enclosure-BodyHole_1 id:0 copy 0
; stop printing object external_temperature_sensor_enclosure-BodyHole_1 id:0 copy 0

;TYPE:Custom
M104 S215 ; set extruder temp
M140 S60 ; set bed temp
M190 S60 ; wait for bed temp
M109 S215 ; wait for extruder temp
G28;
G1 Z4.0 F3000 ;Move Z Axis up
G92 E0 ;Reset Extruder
G1 X5.1 Y20 Z0.28 F5000.0 ;Move to start position
G1 X5.1 Y30.0 Z0.28 F1500.0 E1 ;Draw a short bit in case the extruder turns in the wrong direction
G1 X5.1 Y200.0 Z0.28 F1500.0 E15 ;Draw the first line
G1 X5.4 Y200.0 Z0.28 F5000.0 ;Move to side a little
M73 P0 R68
G1 X5.4 Y20 Z0.28 F1500.0 E30 ;Draw the second line
G92 E0 ;Reset Extruder
G1 Z2.0 F3000 ;Move Z Axis up
G21 ; set units to millimeters
G90 ; use absolute coordinates
M83 ; use relative distances for extrusion
; Filament gcode
M107
;LAYER_CHANGE
;Z:0.2
;HEIGHT:0.2
G1 E-.5 F2400
G1 Z.2 F720
G1 X88.06 Y78.065 F10800
G1 Z.2 F720
G1 E.5 F2400
M204 S800
;TYPE:Skirt/Brim
;WIDTH:0.42
G1 F1200
G1 X91.048 Y75.077 E.13249
G1 X92.595 Y74.436 E.0525
G1 X131.42 Y74.436 E1.21733
G1 X132.968 Y75.077 E.05253
G1 X135.955 Y78.065 E.13247
G1 X136.596 Y79.612 E.0525
G1 X136.596 Y133.437 E1.68765
G1 X135.955 Y134.985 E.05253
G1 X132.968 Y137.973 E.13247
G1 X131.42 Y138.614 E.05253
G1 X92.595 Y138.614 E1.21733
G1 X91.048 Y137.973 E.0525
G1 X88.06 Y134.985 E.13249
G1 X87.419 Y133.437 E.05253
G1 X87.419 Y79.612 E1.68765
G1 X88.037 Y78.12 E.05063
M204 S1000
;WIPE_START
G1 F8640
G1 X88.06 Y78.065 E-.01573
G1 X89.357 Y76.768 E-.48427
;WIPE_END
G1 X90.532 Y79.282 F10800
G1 E.5 F2400
M204 S800
G1 F1200
G1 X92.155 Y77.616 E.07293
G1 X92.976 Y77.228 E.02847
G1 X94.289 Y76.911 E.04235
G1 X129.697 Y76.915 E1.11019
G1 X130.717 Y77.109 E.03255
G1 X131.695 Y77.525 E.03332
G1 X132.82 Y78.42 E.04507
G1 X133.713 Y79.759 E.05046
G1 X134.121 Y81.304 E.0501
G1 X134.121 Y131.743 E1.58148
G1 X133.806 Y133.055 E.04231
G1 X133.348 Y133.975 E.03222
G1 X132.412 Y135.006 E.04366
G1 X131.727 Y135.514 E.02674
G1 X129.755 Y136.138 E.06485
G1 X94.29 Y136.138 E1.11198
G1 X92.978 Y135.824 E.0423
G1 X92.058 Y135.366 E.03222
G1 X91.027 Y134.429 E.04368
G1 X90.519 Y133.744 E.02674
G1 X89.894 Y131.772 E.06486
G1 X89.894 Y81.383 E1.57991
G1 X90.097 Y80.297 E.03464
G1 X90.509 Y79.337 E.03276
M204 S1000
G1 X90.854 Y79.487 F10800
M204 S800
G1 F1200
G1 X90.864 Y79.464 E.00079
G1 X92.348 Y77.942 E.06665
G1 X93.086 Y77.589 E.02565
G1 X94.312 Y77.289 E.03957
G1 X129.679 Y77.292 E1.10891
G1 X130.625 Y77.475 E.03021
G1 X131.522 Y77.861 E.03062
G1 X132.561 Y78.696 E.04179
G1 X133.357 Y79.887 E.04492
G1 X133.744 Y81.329 E.04681
G1 X133.744 Y131.72 E1.57997
G1 X133.445 Y132.944 E.03951
M73 P1 R68
G1 X133.024 Y133.781 E.02938
G1 X132.147 Y134.736 E.04065
G1 X131.529 Y135.191 E.02406
G1 X129.726 Y135.761 E.05929
G1 X94.313 Y135.761 E1.11035
G1 X93.089 Y135.463 E.0395
G1 X92.251 Y135.041 E.02942
G1 X91.296 Y134.164 E.04065
G1 X90.841 Y133.546 E.02406
G1 X90.271 Y131.743 E.05929
G1 X90.271 Y81.401 E1.57844
G1 X90.464 Y80.389 E.0323
G1 X90.83 Y79.542 E.02893
M204 S1000
G1 X91.176 Y79.692 F10800
M204 S800
G1 F1200
G1 X91.197 Y79.646 E.00159
G1 X92.542 Y78.267 E.0604
G1 X93.197 Y77.95 E.02282
G1 X94.336 Y77.666 E.03681
G1 X129.66 Y77.669 E1.10756
G1 X130.532 Y77.841 E.02787
G1 X131.348 Y78.196 E.0279
G1 X132.3 Y78.97 E.03847
G1 X133.025 Y80.068 E.04125
G1 X133.367 Y81.353 E.04169
G1 X133.367 Y131.696 E1.57847
G1 X133.085 Y132.831 E.03667
G1 X132.7 Y133.586 E.02657
G1 X131.884 Y134.466 E.03763
G1 X131.332 Y134.869 E.02143
G1 X129.697 Y135.384 E.05375
G1 X94.336 Y135.384 E1.10872
G1 X93.201 Y135.102 E.03667
G1 X92.447 Y134.718 E.02653
G1 X91.567 Y133.901 E.03765
G1 X91.164 Y133.349 E.02143
G1 X90.648 Y131.714 E.05376
G1 X90.648 Y81.419 E1.57696
G1 X90.818 Y80.519 E.02872
G1 X91.153 Y79.747 E.02639
M204 S1000
G1 X91.497 Y79.899 F10800
M204 S800
G1 F1200
G1 X91.528 Y79.829 E.0024
G1 X92.737 Y78.591 E.05426
G1 X93.31 Y78.31 E.02001
G1 X94.36 Y78.043 E.03397
G1 X129.641 Y78.046 E1.10621
G1 X130.436 Y78.206 E.02543
G1 X131.171 Y78.53 E.02519
G1 X132.038 Y79.242 E.03518
G1 X132.692 Y80.248 E.03762
G1 X132.99 Y81.377 E.03661
G1 X132.99 Y131.673 E1.577
G1 X132.725 Y132.717 E.03377
G1 X132.378 Y133.389 E.02371
G1 X131.622 Y134.194 E.03463
G1 X131.136 Y134.545 E.0188
G1 X129.668 Y135.007 E.04825
G1 X94.36 Y135.007 E1.10706
G1 X93.316 Y134.742 E.03377
G1 X92.644 Y134.395 E.02371
G1 X91.839 Y133.639 E.03463
G1 X91.488 Y133.153 E.0188
G1 X91.025 Y131.686 E.04823
G1 X91.025 Y81.437 E1.57552
G1 X91.184 Y80.612 E.02634
G1 X91.473 Y79.953 E.02256
M204 S1000
G1 X91.817 Y80.106 F10800
M204 S800
G1 F1200
G1 X91.858 Y80.013 E.00319
G1 X92.933 Y78.914 E.0482
G1 X93.425 Y78.67 E.01722
G1 X94.384 Y78.42 E.03107
G1 X129.622 Y78.423 E1.10486
G1 X130.303 Y78.56 E.02178
M73 P1 R67
G1 X130.995 Y78.864 E.0237
G1 X131.775 Y79.513 E.03181
G1 X132.336 Y80.375 E.03225
G1 X132.613 Y81.403 E.03338
G1 X132.613 Y131.648 E1.5754
G1 X132.366 Y132.6 E.03084
G1 X132.057 Y133.19 E.02088
G1 X131.362 Y133.921 E.03163
G1 X130.942 Y134.221 E.01618
G1 X129.64 Y134.63 E.04279
G1 X94.385 Y134.63 E1.1054
G1 X93.432 Y134.383 E.03087
G1 X92.843 Y134.074 E.02085
G1 X92.112 Y133.379 E.03163
G1 X91.812 Y132.959 E.01618
G1 X91.403 Y131.657 E.04279
G1 X91.403 Y81.456 E1.57402
G1 X91.55 Y80.706 E.02396
G1 X91.792 Y80.161 E.0187
M204 S1000
G1 X92.137 Y80.315 F10800
M204 S800
G1 F1200
G1 X92.189 Y80.197 E.00404
G1 X93.131 Y79.236 E.04219
G1 X93.542 Y79.029 E.01443
G1 X94.409 Y78.797 E.02814
G1 X129.603 Y78.801 E1.10348
G1 X130.206 Y78.925 E.0193
G1 X130.816 Y79.197 E.02094
G1 X131.509 Y79.782 E.02844
G1 X132.003 Y80.553 E.02871
G1 X132.236 Y81.427 E.02836
G1 X132.236 Y131.623 E1.57386
G1 X132.008 Y132.481 E.02784
G1 X131.737 Y132.988 E.01803
G1 X131.104 Y133.645 E.02861
G1 X130.749 Y133.895 E.01361
G1 X129.611 Y134.253 E.03741
G1 X94.41 Y134.253 E1.1037
G1 X93.551 Y134.025 E.02787
G1 X93.045 Y133.754 E.018
G1 X92.387 Y133.121 E.02863
G1 X92.137 Y132.766 E.01361
G1 X91.78 Y131.628 E.0374
G1 X91.78 Y81.474 E1.57254
G1 X91.903 Y80.84 E.02025
M73 P2 R67
G1 X92.112 Y80.369 E.01616
M204 S1000
G1 X92.455 Y80.524 F10800
M204 S800
G1 F1200
G1 X92.518 Y80.384 E.00481
G1 X93.331 Y79.557 E.03636
G1 X93.662 Y79.387 E.01167
G1 X94.435 Y79.174 E.02514
G1 X129.582 Y79.178 E1.10201
G1 X130.107 Y79.289 E.01682
G1 X130.634 Y79.529 E.01816
G1 X131.242 Y80.05 E.02511
G1 X131.647 Y80.681 E.02351
G1 X131.859 Y81.453 E.0251
G1 X131.859 Y131.597 E1.57223
G1 X131.65 Y132.359 E.02477
G1 X131.419 Y132.784 E.01517
G1 X130.558 Y133.569 E.03653
G1 X129.582 Y133.876 E.03208
G1 X94.436 Y133.876 E1.10198
G1 X93.673 Y133.667 E.0248
G1 X93.249 Y133.437 E.01512
G1 X92.464 Y132.575 E.03656
G1 X92.157 Y131.599 E.03208
G1 X92.157 Y81.493 E1.57104
G1 X92.268 Y80.936 E.01781
G1 X92.43 Y80.579 E.01229
M204 S1000
G1 X92.771 Y80.736 F10800
M204 S800
G1 F1200
G1 X92.846 Y80.572 E.00565
G1 X93.533 Y79.877 E.03064
G1 X94.462 Y79.551 E.03087
G1 X129.561 Y79.555 E1.1005
G1 X130.004 Y79.652 E.01422
G1 X130.45 Y79.859 E.01542
G1 X130.974 Y80.316 E.0218
G1 X131.292 Y80.811 E.01845
G1 X131.482 Y81.48 E.02181
G1 X131.482 Y131.57 E1.57054
G1 X131.294 Y132.234 E.02164
G1 X131.103 Y132.576 E.01228
G1 X130.369 Y133.242 E.03108
G1 X129.553 Y133.499 E.02682
G1 X94.463 Y133.499 E1.10022
G1 X93.799 Y133.311 E.02164
G1 X93.456 Y133.121 E.01229
G1 X92.791 Y132.386 E.03108
G1 X92.534 Y131.57 E.02682
G1 X92.534 Y81.513 E1.5695
G1 X92.633 Y81.035 E.01531
G1 X92.745 Y80.791 E.00842
M204 S1000
G1 X93.12 Y80.918 F10800
M204 S800
G1 F1200
G1 X93.173 Y80.764 E.00511
G1 X93.738 Y80.194 E.02516
G1 X94.491 Y79.928 E.02504
G1 X129.539 Y79.932 E1.09891
G1 X130.263 Y80.187 E.02407
G1 X130.703 Y80.579 E.01848
G1 X130.939 Y80.945 E.01365
G1 X131.105 Y81.508 E.0184
G1 X131.105 Y131.542 E1.56878
G1 X130.79 Y132.365 E.02763
G1 X130.183 Y132.913 E.02564
G1 X129.524 Y133.122 E.02168
G1 X94.491 Y133.122 E1.09844
G1 X93.667 Y132.807 E.02766
G1 X93.12 Y132.2 E.02562
G1 X92.911 Y131.541 E.02168
G1 X92.911 Y81.534 E1.56793
G1 X93.101 Y80.975 E.01851
M204 S1000
G1 X93.449 Y81.098 F10800
M204 S800
G1 F1200
G1 X93.499 Y80.955 E.00475
G1 X93.947 Y80.509 E.01982
G1 X94.52 Y80.305 E.01907
G1 X129.517 Y80.309 E1.09731
G1 X130.076 Y80.516 E.01869
G1 X130.43 Y80.84 E.01505
G1 X130.727 Y81.537 E.02376
G1 X130.727 Y131.513 E1.56696
G1 X130.48 Y132.15 E.02142
G1 X130.097 Y132.521 E.01672
G1 X129.494 Y132.745 E.02017
G1 X94.52 Y132.745 E1.09659
G1 X93.883 Y132.497 E.02143
G1 X93.512 Y132.114 E.01672
G1 X93.288 Y131.512 E.02014
G1 X93.288 Y81.553 E1.56643
G1 X93.429 Y81.155 E.01324
M204 S1000
G1 X93.774 Y81.285 F10800
M204 S800
G1 F1200
G1 X93.826 Y81.147 E.00462
G1 X94.162 Y80.819 E.01472
G1 X94.552 Y80.682 E.01296
G1 X129.495 Y80.686 E1.09561
G1 X129.886 Y80.843 E.01321
G1 X130.154 Y81.098 E.0116
G1 X130.35 Y81.569 E.016
G1 X130.35 Y131.481 E1.56496
G1 X130.174 Y131.928 E.01506
M73 P3 R67
G1 X129.855 Y132.231 E.01379
G1 X129.464 Y132.368 E.01299
G1 X94.552 Y132.368 E1.09464
G1 X94.105 Y132.191 E.01507
M73 P3 R66
G1 X93.802 Y131.872 E.01379
G1 X93.665 Y131.481 E.01299
G1 X93.665 Y81.572 E1.56486
G1 X93.752 Y81.341 E.00774
M204 S1000
G1 X94.087 Y81.487 F10800
M204 S800
G1 F1200
G1 X94.15 Y81.343 E.00493
G1 X94.374 Y81.136 E.00956
G1 X94.587 Y81.059 E.0071
G1 X129.443 Y81.059 E1.09289
G1 X129.874 Y81.35 E.01631
G1 X129.973 Y81.604 E.00855
G1 X129.973 Y131.446 E1.56276
G1 X129.876 Y131.697 E.00844
G1 X129.641 Y131.914 E.01003
G1 X129.429 Y131.991 E.00707
G1 X94.587 Y131.991 E1.09245
G1 X94.336 Y131.893 E.00845
G1 X94.118 Y131.659 E.01003
G1 X94.042 Y131.446 E.00709
G1 X94.042 Y81.59 E1.5632
G1 X94.063 Y81.542 E.00164
M204 S1000
G1 X94.448 Y81.577 F10800
M204 S800
G1 F1200
G1 X94.629 Y81.436 E.00719
G1 X129.456 Y81.465 E1.09198
G1 X129.596 Y81.646 E.00717
G1 X129.568 Y131.473 E1.56229
G1 X129.387 Y131.614 E.00719
G1 X94.559 Y131.585 E1.09201
G1 X94.419 Y131.404 E.00717
G1 X94.448 Y81.637 E1.56041
M204 S1000
; printing object external_temperature_sensor_enclosure-BodyHole_1 id:0 copy 0
G1 X95.295 Y82.312 F10800
M204 S800
;TYPE:Perimeter
;WIDTH:0.419999
G1 F1200
G1 X128.721 Y82.312 E1.04805
G1 X128.721 Y130.738 E1.51836
G1 X95.295 Y130.738 E1.04805
G1 X95.295 Y82.372 E1.51648
M204 S1000
G1 X94.918 Y81.935 F10800
M204 S800
;TYPE:External perimeter
G1 F1200
G1 X129.098 Y81.935 E1.07169
G1 X129.098 Y131.115 E1.542
G1 X94.918 Y131.115 E1.07169
G1 X94.918 Y81.995 E1.54012
M204 S1000
;WIPE_START
G1 F8640
G1 X94.918 Y81.935 E-.01583
G1 X96.753 Y81.935 E-.48417
;WIPE_END
G1 X128.551 Y83.246 F10800
G1 E.5 F2400
M204 S800
;TYPE:Solid infill
;WIDTH:0.420888
G1 F1200
G1 X127.956 Y82.651 E.02645
G1 X127.422 Y82.651 E.01678
G1 X128.381 Y83.611 E.04265
G1 X128.381 Y84.145 E.01678
G1 X126.887 Y82.651 E.0664
G1 X126.353 Y82.651 E.01678
G1 X128.381 Y84.68 E.09016
G1 X128.381 Y85.214 E.01678
G1 X125.818 Y82.651 E.11392
G1 X125.284 Y82.651 E.01678
G1 X128.381 Y85.749 E.13767
G1 X128.381 Y86.283 E.01678
G1 X124.749 Y82.651 E.16143
G1 X124.215 Y82.651 E.01678
M73 P4 R66
G1 X128.381 Y86.818 E.18518
G1 X128.381 Y87.352 E.01678
G1 X123.68 Y82.651 E.20894
G1 X123.146 Y82.651 E.01678
G1 X128.381 Y87.887 E.2327
G1 X128.381 Y88.421 E.01678
G1 X122.611 Y82.651 E.25645
G1 X122.077 Y82.651 E.01678
G1 X128.381 Y88.956 E.28021
G1 X128.381 Y89.491 E.01681
G1 X121.542 Y82.651 E.30399
G1 X121.008 Y82.651 E.01678
G1 X128.381 Y90.025 E.32772
G1 X128.381 Y90.56 E.01681
G1 X120.473 Y82.651 E.3515
G1 X119.939 Y82.651 E.01678
G1 X128.381 Y91.094 E.37524
G1 X128.381 Y91.629 E.01681
G1 X119.404 Y82.651 E.39902
G1 X118.87 Y82.651 E.01678
G1 X128.381 Y92.163 E.42275
G1 X128.381 Y92.698 E.01681
G1 X118.335 Y82.651 E.44653
G1 X117.8 Y82.651 E.01681
G1 X128.381 Y93.232 E.47028
G1 X128.381 Y93.767 E.01681
G1 X117.266 Y82.651 E.49404
G1 X116.731 Y82.651 E.01681
G1 X128.381 Y94.301 E.5178
G1 X128.381 Y94.836 E.01681
G1 X116.197 Y82.651 E.54155
G1 X115.662 Y82.651 E.01681
G1 X128.381 Y95.37 E.56531
G1 X128.381 Y95.905 E.01681
G1 X115.128 Y82.651 E.58907
G1 X114.593 Y82.651 E.01681
G1 X128.381 Y96.439 E.61282
G1 X128.381 Y96.974 E.01681
G1 X114.059 Y82.651 E.63658
G1 X113.524 Y82.651 E.01681
G1 X128.381 Y97.508 E.66034
G1 X128.381 Y98.043 E.01681
G1 X112.99 Y82.651 E.68409
G1 X112.455 Y82.651 E.01681
G1 X128.381 Y98.578 E.70787
G1 X128.381 Y99.112 E.01678
G1 X111.921 Y82.651 E.73161
G1 X111.386 Y82.651 E.01681
G1 X128.381 Y99.647 E.75538
G1 X128.381 Y100.181 E.01678
G1 X110.852 Y82.651 E.77912
G1 X110.317 Y82.651 E.01681
G1 X128.381 Y100.716 E.8029
G1 X128.381 Y101.25 E.01678
M73 P4 R65
G1 X109.783 Y82.651 E.82663
G1 X109.248 Y82.651 E.01681
G1 X128.381 Y101.785 E.85041
G1 X128.381 Y102.319 E.01678
G1 X108.713 Y82.651 E.87417
G1 X108.179 Y82.651 E.01678
G1 X128.381 Y102.854 E.89792
G1 X128.381 Y103.388 E.01678
G1 X107.644 Y82.651 E.92168
G1 X107.11 Y82.651 E.01678
G1 X128.381 Y103.923 E.94544
G1 X128.381 Y104.457 E.01678
G1 X106.575 Y82.651 E.96919
G1 X106.041 Y82.651 E.01678
G1 X128.381 Y104.992 E.99295
G1 X128.381 Y105.526 E.01678
G1 X105.506 Y82.651 E1.01671
G1 X104.972 Y82.651 E.01678
G1 X128.381 Y106.061 E1.04046
G1 X128.381 Y106.595 E.01678
G1 X104.437 Y82.651 E1.06422
G1 X103.903 Y82.651 E.01678
G1 X128.381 Y107.13 E1.08797
G1 X128.381 Y107.664 E.01678
G1 X103.368 Y82.651 E1.11173
G1 X102.834 Y82.651 E.01678
M73 P5 R65
G1 X128.381 Y108.199 E1.13549
G1 X128.381 Y108.734 E.01681
G1 X102.299 Y82.651 E1.15927
G1 X101.765 Y82.651 E.01678
G1 X128.381 Y109.268 E1.183
G1 X128.381 Y109.803 E.01681
G1 X101.23 Y82.651 E1.20678
G1 X100.696 Y82.651 E.01678
G1 X128.381 Y110.337 E1.23051
G1 X128.381 Y110.872 E.01681
G1 X100.161 Y82.651 E1.25429
G1 X99.627 Y82.651 E.01678
G1 X128.381 Y111.406 E1.27803
G1 X128.381 Y111.941 E.01681
G1 X99.092 Y82.651 E1.30181
G1 X98.557 Y82.651 E.01681
G1 X128.381 Y112.475 E1.32556
G1 X128.381 Y113.01 E.01681
G1 X98.023 Y82.651 E1.34932
G1 X97.488 Y82.651 E.01681
G1 X128.381 Y113.544 E1.37307
G1 X128.381 Y114.079 E.01681
G1 X96.954 Y82.651 E1.39683
G1 X96.419 Y82.651 E.01681
G1 X128.381 Y114.613 E1.42059
G1 X128.381 Y115.148 E.01681
G1 X95.885 Y82.651 E1.44434
G1 X95.634 Y82.651 E.00789
G1 X95.634 Y82.935 E.00893
G1 X128.381 Y115.682 E1.45548
G1 X128.381 Y116.217 E.01681
G1 X95.634 Y83.47 E1.45548
G1 X95.634 Y84.004 E.01678
G1 X128.381 Y116.751 E1.45548
G1 X128.381 Y117.286 E.01681
G1 X95.634 Y84.539 E1.45548
G1 X95.634 Y85.073 E.01678
M73 P5 R64
G1 X128.381 Y117.82 E1.45548
G1 X128.381 Y118.355 E.01681
M73 P6 R64
G1 X95.634 Y85.608 E1.45548
G1 X95.634 Y86.142 E.01678
G1 X128.381 Y118.89 E1.4555
G1 X128.381 Y119.424 E.01678
G1 X95.634 Y86.677 E1.45548
G1 X95.634 Y87.212 E.01681
G1 X128.381 Y119.959 E1.45548
G1 X128.381 Y120.493 E.01678
G1 X95.634 Y87.746 E1.45548
G1 X95.634 Y88.281 E.01681
G1 X128.381 Y121.028 E1.45548
G1 X128.381 Y121.562 E.01678
G1 X95.634 Y88.815 E1.45548
G1 X95.634 Y89.35 E.01681
G1 X128.381 Y122.097 E1.45548
G1 X128.381 Y122.631 E.01678
G1 X95.634 Y89.884 E1.45548
G1 X95.634 Y90.419 E.01681
G1 X128.381 Y123.166 E1.45548
G1 X128.381 Y123.7 E.01678
G1 X95.634 Y90.953 E1.45548
G1 X95.634 Y91.488 E.01681
G1 X128.381 Y124.235 E1.45548
G1 X128.381 Y124.769 E.01678
G1 X95.634 Y92.022 E1.45548
G1 X95.634 Y92.557 E.01681
G1 X128.381 Y125.304 E1.45548
G1 X128.381 Y125.838 E.01678
G1 X95.634 Y93.091 E1.45548
G1 X95.634 Y93.626 E.01681
G1 X128.381 Y126.373 E1.45548
G1 X128.381 Y126.907 E.01678
G1 X95.634 Y94.16 E1.45548
G1 X95.634 Y94.695 E.01681
G1 X128.381 Y127.442 E1.45548
G1 X128.381 Y127.977 E.01681
M73 P7 R64
G1 X95.634 Y95.229 E1.4555
G1 X95.634 Y95.764 E.01681
G1 X128.381 Y128.511 E1.45548
G1 X128.381 Y129.046 E.01681
G1 X95.634 Y96.298 E1.4555
G1 X95.634 Y96.833 E.01681
G1 X128.381 Y129.58 E1.45548
G1 X128.381 Y130.115 E.01681
G1 X95.634 Y97.368 E1.45548
G1 X95.634 Y97.902 E.01678
