; generated by PrusaSlicer 2.9.4 on 2026-05-14 at 21:27:40 UTC


;
;
; 

; external perimeters extrusion width = 0.45mm
; perimeters extrusion width = 0.45mm
; infill extrusion width = 0.45mm
; solid infill extrusion width = 0.45mm
; top infill extrusion width = 0.40mm
; support material extrusion width = 0.35mm
; first layer extrusion width = 0.42mm

M73 P0 R36

; printing object external_temperature_sensor_enclosure-BodyHole_2 id:0 copy 0
; stop printing object external_temperature_sensor_enclosure-BodyHole_2 id:0 copy 0

;TYPE:Custom
M104 S215 ; set extruder temp
M140 S60 ; set bed temp
M190 S60 ; wait for bed temp
M109 S215 ; wait for extruder temp
G28;
G1 Z4.0 F3000 ;Move Z Axis up
G92 E0 ;Reset Extruder
G1 X5.1 Y20 Z0.28 F5000.0 ;Move to start position
G1 X5.1 Y30.0 Z0.28 F1500.0 E1 ;Draw a short bit in case the extruder turns in the wrong direction
G1 X5.1 Y200.0 Z0.28 F1500.0 E15 ;Draw the first line
M73 P0 R35
G1 X5.4 Y200.0 Z0.28 F5000.0 ;Move to side a little
G1 X5.4 Y20 Z0.28 F1500.0 E30 ;Draw the second line
G92 E0 ;Reset Extruder
G1 Z2.0 F3000 ;Move Z Axis up
G21 ; set units to millimeters
G90 ; use absolute coordinates
M83 ; use relative distances for extrusion
; Filament gcode
M107
;LAYER_CHANGE
;Z:0.2
;HEIGHT:0.2
G1 E-.5 F2400
G1 Z.2 F720
G1 X86.842 Y83.712 F10800
G1 Z.2 F720
G1 E.5 F2400
M204 S800
;TYPE:Skirt/Brim
;WIDTH:0.42
G1 F1200
G1 X89.83 Y80.724 E.13249
G1 X91.377 Y80.083 E.0525
G1 X130.202 Y80.083 E1.21733
G1 X131.75 Y80.724 E.05253
G1 X134.737 Y83.712 E.13247
G1 X135.378 Y85.259 E.0525
G1 X135.378 Y139.084 E1.68765
G1 X134.737 Y140.632 E.05253
M73 P1 R35
G1 X131.75 Y143.619 E.13245
G1 X130.202 Y144.26 E.05253
G1 X91.377 Y144.26 E1.21733
G1 X89.83 Y143.619 E.0525
G1 X86.842 Y140.632 E.13247
G1 X86.201 Y139.084 E.05253
G1 X86.201 Y85.259 E1.68765
G1 X86.819 Y83.767 E.05063
M204 S1000
;WIPE_START
G1 F8640
G1 X86.842 Y83.712 E-.01573
G1 X88.14 Y82.414 E-.48427
;WIPE_END
G1 X89.308 Y85.006 F10800
G1 E.5 F2400
M204 S800
G1 F1200
G1 X89.449 Y84.722 E.00994
G1 X90.386 Y83.691 E.04368
G1 X91.071 Y83.183 E.02674
G1 X93.043 Y82.558 E.06486
G1 X128.479 Y82.562 E1.11107
G1 X129.499 Y82.756 E.03255
G1 X130.478 Y83.171 E.03334
G1 X131.602 Y84.067 E.04507
G1 X132.495 Y85.405 E.05044
G1 X132.903 Y86.951 E.05013
G1 X132.903 Y137.39 E1.58148
G1 X132.589 Y138.702 E.0423
G1 X132.131 Y139.622 E.03222
G1 X131.194 Y140.652 E.04366
G1 X130.509 Y141.16 E.02674
G1 X128.537 Y141.785 E.06486
G1 X93.072 Y141.785 E1.11198
G1 X91.76 Y141.471 E.0423
G1 X90.84 Y141.012 E.03224
G1 X89.809 Y140.076 E.04366
G1 X89.301 Y139.391 E.02674
G1 X88.676 Y137.419 E.06486
G1 X88.676 Y86.954 E1.58229
G1 X88.991 Y85.642 E.04231
G1 X89.281 Y85.06 E.02039
M204 S1000
G1 X89.616 Y85.229 F10800
M204 S800
G1 F1200
G1 X89.774 Y84.915 E.01102
G1 X90.651 Y83.96 E.04065
G1 X91.269 Y83.505 E.02406
G1 X93.072 Y82.935 E.05929
G1 X128.461 Y82.939 E1.1096
G1 X129.407 Y83.122 E.03021
G1 X130.305 Y83.507 E.03063
G1 X131.343 Y84.343 E.04179
G1 X132.139 Y85.533 E.04489
G1 X132.526 Y86.976 E.04684
G1 X132.526 Y137.367 E1.57997
G1 X132.228 Y138.591 E.0395
G1 X131.806 Y139.428 E.02939
G1 X130.929 Y140.383 E.04065
G1 X130.311 Y140.838 E.02406
G1 X128.508 Y141.408 E.05929
G1 X93.095 Y141.408 E1.11035
G1 X91.871 Y141.11 E.0395
M73 P2 R35
G1 X91.033 Y140.688 E.02942
G1 X90.078 Y139.811 E.04065
G1 X89.623 Y139.193 E.02406
G1 X89.053 Y137.39 E.05929
G1 X89.053 Y86.977 E1.58066
G1 X89.352 Y85.753 E.03951
G1 X89.589 Y85.282 E.01653
M204 S1000
G1 X89.923 Y85.452 F10800
M204 S800
G1 F1200
G1 X90.097 Y85.111 E.012
G1 X90.914 Y84.231 E.03765
G1 X91.466 Y83.828 E.02143
G1 X93.101 Y83.312 E.05376
G1 X128.442 Y83.316 E1.10809
G1 X129.314 Y83.488 E.02787
G1 X130.13 Y83.843 E.0279
G1 X131.082 Y84.617 E.03847
G1 X131.807 Y85.715 E.04125
G1 X132.149 Y87 E.04169
G1 X132.149 Y137.343 E1.57847
G1 X131.867 Y138.478 E.03667
G1 X131.482 Y139.233 E.02657
G1 X130.666 Y140.113 E.03763
G1 X130.114 Y140.515 E.02141
G1 X128.479 Y141.031 E.05376
G1 X93.118 Y141.031 E1.10872
G1 X91.983 Y140.749 E.03667
G1 X91.229 Y140.364 E.02654
G1 X90.349 Y139.548 E.03763
G1 X89.946 Y138.996 E.02143
G1 X89.431 Y137.361 E.05375
G1 X89.431 Y87 E1.57903
G1 X89.713 Y85.865 E.03667
G1 X89.896 Y85.506 E.01263
M204 S1000
G1 X90.229 Y85.678 F10800
M204 S800
G1 F1200
G1 X90.42 Y85.308 E.01306
G1 X91.176 Y84.503 E.03463
G1 X91.662 Y84.152 E.0188
G1 X93.13 Y83.69 E.04825
G1 X128.423 Y83.693 E1.10659
G1 X129.219 Y83.853 E.02546
G1 X129.954 Y84.177 E.02519
G1 X130.82 Y84.889 E.03515
G1 X131.475 Y85.894 E.03761
G1 X131.772 Y87.024 E.03663
G1 X131.772 Y137.319 E1.57696
G1 X131.507 Y138.364 E.0338
M73 P2 R34
G1 X131.16 Y139.036 E.02371
G1 X130.404 Y139.841 E.03463
G1 X129.918 Y140.192 E.0188
G1 X128.45 Y140.654 E.04825
G1 X93.142 Y140.654 E1.10706
G1 X92.098 Y140.389 E.03377
G1 X91.426 Y140.042 E.02371
G1 X90.621 Y139.286 E.03463
G1 X90.27 Y138.8 E.0188
G1 X89.808 Y137.332 E.04825
G1 X89.808 Y87.024 E1.57737
G1 X90.073 Y85.98 E.03377
M73 P3 R34
G1 X90.201 Y85.731 E.00878
M204 S1000
G1 X90.532 Y85.905 F10800
M204 S800
G1 F1200
G1 X90.741 Y85.507 E.01409
G1 X91.436 Y84.776 E.03163
G1 X91.856 Y84.476 E.01618
G1 X93.158 Y84.067 E.04279
G1 X128.404 Y84.07 E1.10511
G1 X129.086 Y84.207 E.02181
G1 X129.777 Y84.511 E.02367
G1 X130.557 Y85.16 E.03181
G1 X131.118 Y86.022 E.03225
G1 X131.395 Y87.049 E.03335
G1 X131.395 Y137.295 E1.57543
G1 X131.148 Y138.247 E.03084
G1 X130.839 Y138.836 E.02085
G1 X130.144 Y139.567 E.03163
G1 X129.724 Y139.867 E.01618
G1 X128.422 Y140.277 E.0428
G1 X93.167 Y140.277 E1.1054
G1 X92.215 Y140.03 E.03084
G1 X91.625 Y139.721 E.02088
G1 X90.894 Y139.026 E.03163
G1 X90.594 Y138.606 E.01618
G1 X90.185 Y137.304 E.04279
G1 X90.185 Y87.049 E1.57571
G1 X90.432 Y86.097 E.03084
G1 X90.504 Y85.958 E.00491
M204 S1000
G1 X90.834 Y86.134 F10800
M204 S800
G1 F1200
G1 X91.06 Y85.709 E.01509
G1 X91.694 Y85.052 E.02863
G1 X92.049 Y84.801 E.01363
G1 X93.187 Y84.444 E.0374
G1 X128.385 Y84.447 E1.10361
G1 X128.988 Y84.572 E.01931
G1 X129.598 Y84.844 E.02094
G1 X130.291 Y85.429 E.02844
G1 X130.785 Y86.2 E.02871
G1 X131.018 Y87.074 E.02836
G1 X131.018 Y137.27 E1.57386
G1 X130.79 Y138.128 E.02784
G1 X130.519 Y138.635 E.01803
G1 X129.886 Y139.292 E.02861
G1 X129.531 Y139.542 E.01361
G1 X128.393 Y139.9 E.03741
G1 X93.192 Y139.9 E1.1037
G1 X92.334 Y139.672 E.02784
G1 X91.827 Y139.401 E.01803
G1 X91.17 Y138.768 E.02861
G1 X90.92 Y138.413 E.01361
G1 X90.562 Y137.275 E.03741
G1 X90.562 Y87.074 E1.57402
G1 X90.79 Y86.216 E.02784
G1 X90.806 Y86.187 E.00104
M204 S1000
G1 X91.148 Y86.338 F10800
M204 S800
G1 F1200
G1 X91.378 Y85.913 E.01515
G1 X92.24 Y85.128 E.03656
G1 X93.216 Y84.821 E.03208
G1 X128.364 Y84.824 E1.10204
G1 X128.889 Y84.936 E.01683
M73 P4 R34
G1 X129.417 Y85.176 E.01819
G1 X130.024 Y85.697 E.02508
G1 X130.429 Y86.328 E.02351
G1 X130.641 Y87.1 E.0251
G1 X130.641 Y137.244 E1.57223
G1 X130.432 Y138.006 E.02477
G1 X130.201 Y138.431 E.01517
G1 X129.34 Y139.216 E.03653
G1 X128.364 Y139.523 E.03208
G1 X93.218 Y139.523 E1.10198
G1 X92.456 Y139.314 E.02477
G1 X92.031 Y139.083 E.01517
G1 X91.246 Y138.222 E.03653
G1 X90.939 Y137.246 E.03208
G1 X90.939 Y87.1 E1.57229
G1 X91.132 Y86.395 E.02292
M204 S1000
G1 X91.494 Y86.498 F10800
M204 S800
G1 F1200
G1 X91.504 Y86.463 E.00114
G1 X91.694 Y86.12 E.01229
G1 X92.203 Y85.609 E.02261
G1 X92.429 Y85.455 E.00857
G1 X93.245 Y85.198 E.02682
G1 X128.343 Y85.202 E1.10047
G1 X128.787 Y85.299 E.01425
G1 X129.233 Y85.506 E.01542
G1 X129.756 Y85.962 E.02176
G1 X130.074 Y86.458 E.01847
G1 X130.264 Y87.127 E.02181
G1 X130.264 Y137.217 E1.57054
G1 X130.076 Y137.881 E.02164
G1 X129.886 Y138.223 E.01227
G1 X129.151 Y138.889 E.0311
G1 X128.335 Y139.146 E.02682
G1 X93.245 Y139.146 E1.10022
G1 X92.581 Y138.958 E.02164
G1 X92.238 Y138.767 E.01231
G1 X91.573 Y138.033 E.03105
G1 X91.316 Y137.217 E.02682
G1 X91.316 Y87.127 E1.57054
G1 X91.478 Y86.556 E.01861
M204 S1000
G1 X91.865 Y86.704 F10800
M204 S800
G1 F1200
G1 X92.008 Y86.331 E.01253
G1 X92.615 Y85.784 E.02562
G1 X93.274 Y85.575 E.02168
G1 X128.321 Y85.579 E1.09887
G1 X129.046 Y85.834 E.0241
G1 X129.485 Y86.226 E.01845
G1 X129.721 Y86.591 E.01363
G1 X129.887 Y87.155 E.01843
G1 X129.887 Y137.189 E1.56878
G1 X129.572 Y138.012 E.02763
M73 P5 R34
G1 X128.965 Y138.56 E.02564
G1 X128.306 Y138.769 E.02168
G1 X93.273 Y138.769 E1.09844
G1 X92.45 Y138.454 E.02763
G1 X91.902 Y137.847 E.02564
G1 X91.693 Y137.188 E.02168
G1 X91.693 Y87.155 E1.56875
G1 X91.844 Y86.76 E.01326
M204 S1000
G1 X92.184 Y86.892 F10800
M204 S800
G1 F1200
G1 X92.318 Y86.547 E.0116
G1 X92.797 Y86.114 E.02025
G1 X93.303 Y85.952 E.01666
G1 X128.299 Y85.956 E1.09728
G1 X128.858 Y86.162 E.01868
G1 X129.213 Y86.487 E.01509
G1 X129.51 Y87.184 E.02376
G1 X129.51 Y137.159 E1.56693
G1 X129.262 Y137.797 E.02146
G1 X128.879 Y138.167 E.0167
G1 X128.277 Y138.392 E.02015
G1 X93.302 Y138.392 E1.09662
G1 X92.665 Y138.144 E.02143
G1 X92.294 Y137.761 E.01672
G1 X92.07 Y137.158 E.02017
G1 X92.07 Y87.184 E1.5669
G1 X92.162 Y86.948 E.00794
M73 P5 R33
M204 S1000
G1 X92.5 Y87.081 F10800
M204 S800
G1 F1200
G1 X92.623 Y86.769 E.01052
G1 X92.943 Y86.466 E.01382
G1 X93.334 Y86.329 E.01299
G1 X128.277 Y86.333 E1.09561
G1 X128.668 Y86.49 E.01321
G1 X128.936 Y86.744 E.01158
G1 X129.133 Y87.216 E.01604
G1 X129.133 Y137.128 E1.56496
G1 X128.956 Y137.575 E.01507
G1 X128.637 Y137.877 E.01377
G1 X128.246 Y138.015 E.013
G1 X93.334 Y138.015 E1.09464
G1 X92.887 Y137.838 E.01507
G1 X92.584 Y137.519 E.01379
G1 X92.447 Y137.128 E.01299
G1 X92.447 Y87.216 E1.56496
G1 X92.478 Y87.137 E.00266
M73 P6 R33
M204 S1000
G1 X92.824 Y87.251 F10800
M204 S800
G1 F1200
G1 X92.922 Y87 E.00845
G1 X93.156 Y86.782 E.01003
G1 X93.369 Y86.706 E.00709
G1 X128.225 Y86.706 E1.09289
G1 X128.656 Y86.997 E.01631
G1 X128.756 Y87.251 E.00856
G1 X128.756 Y137.093 E1.56276
G1 X128.658 Y137.344 E.00845
G1 X128.424 Y137.561 E.01001
G1 X128.211 Y137.637 E.00709
G1 X93.369 Y137.637 E1.09245
G1 X93.118 Y137.54 E.00844
G1 X92.901 Y137.306 E.01001
G1 X92.824 Y137.093 E.0071
G1 X92.824 Y87.311 E1.56088
M204 S1000
G1 X93.23 Y87.311 F10800
M204 S800
G1 F1200
G1 X93.23 Y87.224 E.00273
G1 X93.411 Y87.083 E.00719
G1 X128.238 Y87.112 E1.09198
G1 X128.378 Y87.293 E.00717
G1 X128.35 Y137.12 E1.56229
G1 X128.169 Y137.26 E.00717
G1 X93.342 Y137.232 E1.09198
G1 X93.201 Y137.051 E.00719
G1 X93.23 Y87.371 E1.55768
M204 S1000
;WIPE_START
G1 F8640
G1 X93.23 Y87.311 E-.01583
G1 X93.23 Y87.224 E-.02296
G1 X93.411 Y87.083 E-.06055
G1 X94.929 Y87.084 E-.40066
;WIPE_END
; printing object external_temperature_sensor_enclosure-BodyHole_2 id:0 copy 0
G1 X94.077 Y136.385 F10800
G1 E.5 F2400
M204 S800
;TYPE:Perimeter
;WIDTH:0.419999
G1 F1200
G1 X94.077 Y87.959 E1.51836
G1 X127.503 Y87.959 E1.04805
G1 X127.503 Y136.385 E1.51836
M73 P7 R33
G1 X94.137 Y136.385 E1.04617
M204 S1000
G1 X93.7 Y136.762 F10800
M204 S800
;TYPE:External perimeter
G1 F1200
G1 X93.7 Y87.582 E1.542
G1 X127.88 Y87.582 E1.07169
G1 X127.88 Y136.762 E1.542
G1 X93.76 Y136.762 E1.06981
M204 S1000
;WIPE_START
G1 F8640
G1 X93.7 Y136.762 E-.01583
G1 X93.7 Y134.927 E-.48417
;WIPE_END
G1 X127.333 Y88.893 F10800
G1 E.5 F2400
M204 S800
;TYPE:Solid infill
;WIDTH:0.420888
G1 F1200
G1 X126.739 Y88.298 E.02642
G1 X126.204 Y88.298 E.01681
G1 X127.163 Y89.258 E.04265
G1 X127.163 Y89.792 E.01678
G1 X125.67 Y88.298 E.06638
G1 X125.135 Y88.298 E.01681
G1 X127.163 Y90.327 E.09016
G1 X127.163 Y90.861 E.01678
G1 X124.601 Y88.298 E.11389
G1 X124.066 Y88.298 E.01681
G1 X127.163 Y91.396 E.13767
G1 X127.163 Y91.93 E.01678
G1 X123.532 Y88.298 E.16141
G1 X122.997 Y88.298 E.01681
G1 X127.163 Y92.465 E.18518
G1 X127.163 Y92.999 E.01678
G1 X122.462 Y88.298 E.20894
G1 X121.928 Y88.298 E.01678
G1 X127.163 Y93.534 E.2327
G1 X127.163 Y94.068 E.01678
G1 X121.393 Y88.298 E.25645
G1 X120.859 Y88.298 E.01678
G1 X127.163 Y94.603 E.28021
G1 X127.163 Y95.137 E.01678
G1 X120.324 Y88.298 E.30397
G1 X119.79 Y88.298 E.01678
G1 X127.163 Y95.672 E.32772
G1 X127.163 Y96.206 E.01678
G1 X119.255 Y88.298 E.35148
G1 X118.721 Y88.298 E.01678
G1 X127.163 Y96.741 E.37524
G1 X127.163 Y97.275 E.01678
G1 X118.186 Y88.298 E.39899
G1 X117.652 Y88.298 E.01678
G1 X127.163 Y97.81 E.42275
G1 X127.163 Y98.345 E.01681
G1 X117.117 Y88.298 E.44653
G1 X116.583 Y88.298 E.01678
M73 P8 R33
G1 X127.163 Y98.879 E.47026
G1 X127.163 Y99.414 E.01681
G1 X116.048 Y88.298 E.49404
G1 X115.514 Y88.298 E.01678
G1 X127.163 Y99.948 E.51778
G1 X127.163 Y100.483 E.01681
G1 X114.979 Y88.298 E.54155
G1 X114.445 Y88.298 E.01678
G1 X127.163 Y101.017 E.56529
G1 X127.163 Y101.552 E.01681
G1 X113.91 Y88.298 E.58907
G1 X113.375 Y88.298 E.01681
G1 X127.163 Y102.086 E.61282
G1 X127.163 Y102.621 E.01681
G1 X112.841 Y88.298 E.63658
G1 X112.306 Y88.298 E.01681
G1 X127.163 Y103.155 E.66034
G1 X127.163 Y103.69 E.01681
M73 P8 R32
G1 X111.772 Y88.298 E.68409
G1 X111.237 Y88.298 E.01681
G1 X127.163 Y104.224 E.70785
G1 X127.163 Y104.759 E.01681
G1 X110.703 Y88.298 E.73161
G1 X110.168 Y88.298 E.01681
G1 X127.163 Y105.293 E.75536
G1 X127.163 Y105.828 E.01681
G1 X109.634 Y88.298 E.77912
G1 X109.099 Y88.298 E.01681
G1 X127.163 Y106.362 E.80288
G1 X127.163 Y106.897 E.01681
G1 X108.565 Y88.298 E.82663
G1 X108.03 Y88.298 E.01681
G1 X127.163 Y107.432 E.85041
G1 X127.163 Y107.966 E.01678
G1 X107.496 Y88.298 E.87414
G1 X106.961 Y88.298 E.01681
G1 X127.163 Y108.501 E.89792
G1 X127.163 Y109.035 E.01678
M73 P9 R32
G1 X106.427 Y88.298 E.92166
G1 X105.892 Y88.298 E.01681
G1 X127.163 Y109.57 E.94544
G1 X127.163 Y110.104 E.01678
G1 X105.358 Y88.298 E.96917
G1 X104.823 Y88.298 E.01681
G1 X127.163 Y110.639 E.99295
G1 X127.163 Y111.173 E.01678
G1 X104.289 Y88.298 E1.01668
G1 X103.754 Y88.298 E.01681
G1 X127.163 Y111.708 E1.04046
G1 X127.163 Y112.242 E.01678
G1 X103.219 Y88.298 E1.06422
G1 X102.685 Y88.298 E.01678
G1 X127.163 Y112.777 E1.08797
G1 X127.163 Y113.311 E.01678
G1 X102.15 Y88.298 E1.11173
G1 X101.616 Y88.298 E.01678
G1 X127.163 Y113.846 E1.13549
G1 X127.163 Y114.38 E.01678
G1 X101.081 Y88.298 E1.15924
G1 X100.547 Y88.298 E.01678
G1 X127.163 Y114.915 E1.183
G1 X127.163 Y115.449 E.01678
G1 X100.012 Y88.298 E1.20676
G1 X99.478 Y88.298 E.01678
M73 P10 R32
G1 X127.163 Y115.984 E1.23051
G1 X127.163 Y116.518 E.01678
G1 X98.943 Y88.298 E1.25427
G1 X98.409 Y88.298 E.01678
G1 X127.163 Y117.053 E1.27803
G1 X127.163 Y117.588 E.01681
G1 X97.874 Y88.298 E1.30181
G1 X97.34 Y88.298 E.01678
G1 X127.163 Y118.122 E1.32554
G1 X127.163 Y118.657 E.01681
G1 X96.805 Y88.298 E1.34932
G1 X96.271 Y88.298 E.01678
G1 X127.163 Y119.191 E1.37305
G1 X127.163 Y119.726 E.01681
G1 X95.736 Y88.298 E1.39683
G1 X95.202 Y88.298 E.01678
G1 X127.163 Y120.26 E1.42057
G1 X127.163 Y120.795 E.01681
G1 X94.667 Y88.298 E1.44434
G1 X94.416 Y88.298 E.00789
M73 P11 R32
G1 X94.416 Y88.582 E.00893
G1 X127.163 Y121.329 E1.45548
G1 X127.163 Y121.864 E.01681
M73 P11 R31
G1 X94.416 Y89.117 E1.45548
G1 X94.416 Y89.651 E.01678
G1 X127.163 Y122.398 E1.45548
G1 X127.163 Y122.933 E.01681
G1 X94.416 Y90.186 E1.45548
G1 X94.416 Y90.72 E.01678
G1 X127.163 Y123.467 E1.45548
G1 X127.163 Y124.002 E.01681
G1 X94.416 Y91.255 E1.45548
G1 X94.416 Y91.789 E.01678
G1 X127.163 Y124.536 E1.45548
G1 X127.163 Y125.071 E.01681
G1 X94.416 Y92.324 E1.45548
G1 X94.416 Y92.858 E.01678
G1 X127.163 Y125.605 E1.45548
G1 X127.163 Y126.14 E.01681
M73 P12 R31
G1 X94.416 Y93.393 E1.45548
G1 X94.416 Y93.927 E.01678
G1 X127.163 Y126.674 E1.45548
G1 X127.163 Y127.209 E.01681
G1 X94.416 Y94.462 E1.45548
G1 X94.416 Y94.996 E.01678
G1 X127.163 Y127.744 E1.4555
G1 X127.163 Y128.278 E.01678
G1 X94.416 Y95.531 E1.45548
G1 X94.416 Y96.066 E.01681
G1 X127.163 Y128.813 E1.45548
G1 X127.163 Y129.347 E.01678
G1 X94.416 Y96.6 E1.45548
G1 X94.416 Y97.135 E.01681
G1 X127.163 Y129.882 E1.45548
G1 X127.163 Y130.416 E.01678
G1 X94.416 Y97.669 E1.45548
G1 X94.416 Y98.204 E.01681
M73 P13 R31
G1 X127.163 Y130.951 E1.45548
G1 X127.163 Y131.485 E.01678
G1 X94.416 Y98.738 E1.45548
G1 X94.416 Y99.273 E.01681
G1 X127.163 Y132.02 E1.45548
G1 X127.163 Y132.554 E.01678
G1 X94.416 Y99.807 E1.45548
G1 X94.416 Y100.342 E.01681
G1 X127.163 Y133.089 E1.45548
G1 X127.163 Y133.623 E.01678
G1 X94.416 Y100.876 E1.45548
G1 X94.416 Y101.411 E.01681
